Newaita-dark/.places-aqua/64/folder-favorites.svg

<?xml version="1.0" encoding="UTF-8"?>
<svg xmlns="http://www.w3.org/2000/svg" xmlns:xlink="http://www.w3.org/1999/xlink" width="64px" height="64px" viewBox="0 0 64 64" version="1.1">
<defs>
<linearGradient id="linear0" gradientUnits="userSpaceOnUse" x1="254" y1="233.5" x2="254" y2="254.666672" gradientTransform="matrix(0.125012,0,0,0.125012,-0.00000763012,26.877574)">
<stop offset="0" style="stop-color:rgb(0%,0%,0%);stop-opacity:0.27451;"/>
<stop offset="1" style="stop-color:rgb(0%,0%,0%);stop-opacity:0;"/>
</linearGradient>
<radialGradient id="radial0" gradientUnits="userSpaceOnUse" cx="450.908936" cy="189.579361" fx="450.908936" fy="189.579361" r="21.166656" gradientTransform="matrix(0.000000348341,-0.156265,-0.281277,-0.000000203077,108.230425,127.190669)">
<stop offset="0" style="stop-color:rgb(0%,0%,0%);stop-opacity:0.313726;"/>
<stop offset="0.222222" style="stop-color:rgb(0%,0%,0%);stop-opacity:0.27451;"/>
<stop offset="1" style="stop-color:rgb(0%,0%,0%);stop-opacity:0;"/>
</radialGradient>
<radialGradient id="radial1" gradientUnits="userSpaceOnUse" cx="450.908936" cy="189.579361" fx="450.908936" fy="189.579361" r="21.166656" gradientTransform="matrix(-0.000000348341,0.156265,0.281277,0.000000203077,-44.724356,-15.054954)">
<stop offset="0" style="stop-color:rgb(0%,0%,0%);stop-opacity:0.313726;"/>
<stop offset="0.222222" style="stop-color:rgb(0%,0%,0%);stop-opacity:0.27451;"/>
<stop offset="1" style="stop-color:rgb(0%,0%,0%);stop-opacity:0;"/>
</radialGradient>
<radialGradient id="radial2" gradientUnits="userSpaceOnUse" cx="450.908936" cy="189.579361" fx="450.908936" fy="189.579361" r="21.166656" gradientTransform="matrix(-0.000000348341,-0.156265,0.281277,-0.000000203077,-44.724356,127.190669)">
<stop offset="0" style="stop-color:rgb(0%,0%,0%);stop-opacity:0.313726;"/>
<stop offset="0.222222" style="stop-color:rgb(0%,0%,0%);stop-opacity:0.27451;"/>
<stop offset="1" style="stop-color:rgb(0%,0%,0%);stop-opacity:0;"/>
</radialGradient>
<radialGradient id="radial3" gradientUnits="userSpaceOnUse" cx="450.908936" cy="189.579361" fx="450.908936" fy="189.579361" r="21.166656" gradientTransform="matrix(0.000000348341,0.156265,-0.281277,0.000000203077,108.230422,-15.054955)">
<stop offset="0" style="stop-color:rgb(0%,0%,0%);stop-opacity:0.313726;"/>
<stop offset="0.222222" style="stop-color:rgb(0%,0%,0%);stop-opacity:0.27451;"/>
<stop offset="1" style="stop-color:rgb(0%,0%,0%);stop-opacity:0;"/>
</radialGradient>
<linearGradient id="linear1" gradientUnits="userSpaceOnUse" x1="254" y1="-147.5" x2="254" y2="-31.083334" gradientTransform="matrix(0.125012,0,0,0.125012,0.00000249951,26.877563)">
<stop offset="0" style="stop-color:rgb(64.313728%,64.313728%,64.313728%);stop-opacity:0;"/>
<stop offset="1" style="stop-color:rgb(100%,100%,100%);stop-opacity:0.196078;"/>
</linearGradient>
<linearGradient id="linear2" gradientUnits="userSpaceOnUse" x1="254" y1="233.5" x2="254" y2="-105.166656" gradientTransform="matrix(0.125012,0,0,0.125012,-0.00000362479,26.877566)">
<stop offset="0" style="stop-color:rgb(34.509805%,34.509805%,34.509805%);stop-opacity:0;"/>
<stop offset="1" style="stop-color:rgb(98.039216%,98.039216%,98.039216%);stop-opacity:0.196078;"/>
</linearGradient>
</defs>
<g id="surface1">
<path style=" stroke:none;fill-rule:nonzero;fill:url(#linear0);" d="M 7.9375 56.066406 L 55.566406 56.066406 L 55.566406 58.714844 L 7.9375 58.714844 Z M 7.9375 56.066406 "/>
<path style=" stroke:none;fill-rule:nonzero;fill:url(#radial0);" d="M 55.566406 56.066406 L 60.859375 56.066406 L 60.859375 53.421875 L 55.566406 53.421875 Z M 55.566406 56.066406 "/>
<path style=" stroke:none;fill-rule:nonzero;fill:url(#radial1);" d="M 7.9375 56.066406 L 2.644531 56.066406 L 2.644531 58.714844 L 7.9375 58.714844 Z M 7.9375 56.066406 "/>
<path style=" stroke:none;fill-rule:nonzero;fill:url(#radial2);" d="M 7.9375 56.066406 L 2.644531 56.066406 L 2.644531 53.421875 L 7.9375 53.421875 Z M 7.9375 56.066406 "/>
<path style=" stroke:none;fill-rule:nonzero;fill:url(#radial3);" d="M 55.566406 56.066406 L 60.859375 56.066406 L 60.859375 58.714844 L 55.566406 58.714844 Z M 55.566406 56.066406 "/>
<path style=" stroke:none;fill-rule:nonzero;fill:rgb(56.470591%,79.215688%,97.647059%);fill-opacity:1;" d="M 14.554688 8.4375 L 57.550781 8.4375 C 59.015625 8.4375 60.199219 9.621094 60.199219 11.085938 L 60.199219 21.007812 C 60.199219 22.46875 59.015625 23.652344 57.550781 23.652344 L 14.554688 23.652344 C 13.09375 23.652344 11.90625 22.46875 11.90625 21.007812 L 11.90625 11.085938 C 11.90625 9.621094 13.09375 8.4375 14.554688 8.4375 Z M 14.554688 8.4375 "/>
<path style=" stroke:none;fill-rule:nonzero;fill:url(#linear1);" d="M 14.554688 8.4375 L 57.550781 8.4375 C 59.015625 8.4375 60.199219 9.621094 60.199219 11.085938 L 60.199219 21.007812 C 60.199219 22.46875 59.015625 23.652344 57.550781 23.652344 L 14.554688 23.652344 C 13.09375 23.652344 11.90625 22.46875 11.90625 21.007812 L 11.90625 11.085938 C 11.90625 9.621094 13.09375 8.4375 14.554688 8.4375 Z M 14.554688 8.4375 "/>
<path style=" stroke:none;fill-rule:nonzero;fill:rgb(90.196079%,90.196079%,90.196079%);fill-opacity:0.392157;" d="M 14.554688 8.613281 C 13.085938 8.613281 11.90625 9.792969 11.90625 11.257812 L 11.90625 11.589844 C 11.90625 10.121094 13.085938 8.941406 14.554688 8.941406 L 57.550781 8.941406 C 59.019531 8.941406 60.199219 10.121094 60.199219 11.589844 L 60.199219 11.257812 C 60.199219 9.792969 59.019531 8.613281 57.550781 8.613281 Z M 14.554688 8.613281 "/>
<path style=" stroke:none;fill-rule:nonzero;fill:rgb(12.941177%,12.941177%,12.941177%);fill-opacity:1;" d="M 14.554688 8.25 C 12.988281 8.25 11.71875 9.519531 11.71875 11.085938 L 11.71875 21.007812 C 11.71875 22.574219 12.988281 23.839844 14.554688 23.839844 L 57.550781 23.839844 C 59.117188 23.839844 60.386719 22.574219 60.386719 21.007812 L 60.386719 11.085938 C 60.386719 9.519531 59.117188 8.25 57.550781 8.25 Z M 14.554688 8.625 L 57.550781 8.625 C 58.917969 8.625 60.011719 9.71875 60.011719 11.085938 L 60.011719 21.007812 C 60.011719 22.371094 58.917969 23.464844 57.550781 23.464844 L 14.554688 23.464844 C 13.1875 23.464844 12.09375 22.371094 12.09375 21.007812 L 12.09375 11.085938 C 12.09375 9.71875 13.1875 8.625 14.554688 8.625 Z M 14.554688 8.625 "/>
<path style=" stroke:none;fill-rule:nonzero;fill:rgb(73.333335%,87.058824%,98.431373%);fill-opacity:1;" d="M 5.292969 13.730469 C 3.828125 13.730469 2.644531 14.910156 2.644531 16.375 L 2.644531 53.421875 C 2.644531 54.886719 3.828125 56.066406 5.292969 56.066406 L 58.214844 56.066406 C 59.679688 56.066406 60.859375 54.886719 60.859375 53.421875 L 60.859375 20.34375 L 25.136719 20.34375 C 23.671875 20.34375 22.492188 19.164062 22.492188 17.699219 L 22.492188 13.730469 Z M 5.292969 13.730469 "/>
<path style=" stroke:none;fill-rule:nonzero;fill:url(#linear2);" d="M 5.292969 13.730469 C 3.828125 13.730469 2.644531 14.910156 2.644531 16.375 L 2.644531 53.421875 C 2.644531 54.886719 3.828125 56.066406 5.292969 56.066406 L 58.214844 56.066406 C 59.679688 56.066406 60.859375 54.886719 60.859375 53.421875 L 60.859375 20.34375 L 25.136719 20.34375 C 23.671875 20.34375 22.492188 19.164062 22.492188 17.699219 L 22.492188 13.730469 Z M 5.292969 13.730469 "/>
<path style=" stroke:none;fill-rule:nonzero;fill:rgb(0%,0%,0%);fill-opacity:0.196078;" d="M 5.292969 56.066406 C 3.828125 56.066406 2.644531 54.886719 2.644531 53.421875 L 2.644531 53.089844 C 2.644531 54.558594 3.828125 55.738281 5.292969 55.738281 L 58.214844 55.738281 C 59.679688 55.738281 60.859375 54.558594 60.859375 53.089844 L 60.859375 53.421875 C 60.859375 54.886719 59.679688 56.066406 58.214844 56.066406 Z M 5.292969 56.066406 "/>
<path style=" stroke:none;fill-rule:nonzero;fill:rgb(90.196079%,90.196079%,90.196079%);fill-opacity:0.392157;" d="M 5.292969 13.894531 C 3.828125 13.894531 2.644531 15.074219 2.644531 16.542969 L 2.644531 16.871094 C 2.644531 15.40625 3.828125 14.226562 5.292969 14.226562 L 22.492188 14.226562 L 22.492188 13.894531 Z M 5.292969 13.894531 "/>
<path style=" stroke:none;fill-rule:nonzero;fill:rgb(90.196079%,90.196079%,90.196079%);fill-opacity:0.392157;" d="M 24.972656 20.675781 C 23.507812 20.675781 22.328125 19.496094 22.328125 18.03125 L 22.328125 17.699219 C 22.328125 19.164062 23.507812 20.347656 24.972656 20.347656 L 60.859375 20.347656 L 60.859375 20.675781 Z M 24.972656 20.675781 "/>
<path style=" stroke:none;fill-rule:nonzero;fill:rgb(12.941177%,12.941177%,12.941177%);fill-opacity:1;" d="M 5.292969 13.542969 C 3.726562 13.542969 2.457031 14.808594 2.457031 16.375 L 2.457031 53.421875 C 2.457031 54.988281 3.726562 56.253906 5.292969 56.253906 L 58.214844 56.253906 C 59.78125 56.253906 61.046875 54.988281 61.046875 53.421875 L 61.046875 19.96875 L 25.136719 19.96875 C 23.773438 19.96875 22.679688 18.878906 22.679688 17.511719 L 22.679688 13.542969 Z M 5.292969 13.917969 L 22.304688 13.917969 L 22.304688 17.511719 C 22.304688 19.078125 23.570312 20.34375 25.136719 20.34375 L 60.671875 20.34375 L 60.671875 53.421875 C 60.671875 54.785156 59.578125 55.878906 58.214844 55.878906 L 5.292969 55.878906 C 3.925781 55.878906 2.832031 54.785156 2.832031 53.421875 L 2.832031 16.375 C 2.832031 15.011719 3.925781 13.917969 5.292969 13.917969 Z M 5.292969 13.917969 "/>
<path style=" stroke:none;fill-rule:nonzero;fill:rgb(39.215687%,70.980394%,96.470588%);fill-opacity:1;" d="M 31.753906 26.113281 C 33.011719 26.113281 34.105469 31.976562 35.125 32.714844 C 36.144531 33.457031 42.058594 32.683594 42.449219 33.882812 C 42.839844 35.082031 37.597656 37.929688 37.207031 39.128906 C 36.820312 40.328125 39.382812 45.714844 38.363281 46.457031 C 37.34375 47.195312 33.011719 43.09375 31.753906 43.09375 C 30.492188 43.09375 26.164062 47.195312 25.144531 46.457031 C 24.121094 45.714844 26.6875 40.328125 26.296875 39.128906 C 25.90625 37.929688 20.667969 35.082031 21.058594 33.882812 C 21.445312 32.683594 27.359375 33.457031 28.382812 32.714844 C 29.402344 31.976562 30.492188 26.113281 31.753906 26.113281 Z M 31.753906 26.113281 "/>
<path style=" stroke:none;fill-rule:nonzero;fill:rgb(0%,0%,0%);fill-opacity:0.235294;" d="M 31.753906 26.113281 C 30.492188 26.113281 29.402344 31.976562 28.382812 32.714844 C 27.359375 33.457031 21.445312 32.683594 21.058594 33.882812 C 21.015625 34.007812 21.039062 34.148438 21.105469 34.300781 C 21.785156 33.246094 27.390625 33.953125 28.382812 33.234375 C 29.402344 32.492188 30.492188 26.628906 31.753906 26.628906 C 33.011719 26.628906 34.105469 32.492188 35.125 33.234375 C 36.113281 33.953125 41.71875 33.246094 42.402344 34.300781 C 42.46875 34.148438 42.488281 34.007812 42.449219 33.882812 C 42.058594 32.683594 36.144531 33.457031 35.125 32.714844 C 34.105469 31.976562 33.011719 26.113281 31.753906 26.113281 Z M 37.1875 39.742188 C 36.992188 40.808594 38.4375 44.203125 38.589844 45.96875 C 38.753906 44.636719 37.363281 41.3125 37.1875 39.742188 Z M 26.320312 39.742188 C 26.144531 41.3125 24.75 44.636719 24.914062 45.96875 C 25.066406 44.203125 26.511719 40.808594 26.320312 39.742188 Z M 26.320312 39.742188 "/>
<path style=" stroke:none;fill-rule:nonzero;fill:rgb(100%,100%,100%);fill-opacity:0.392157;" d="M 42.402344 34.300781 C 41.8125 35.652344 37.558594 38.054688 37.207031 39.128906 C 37.160156 39.277344 37.15625 39.484375 37.1875 39.742188 C 37.191406 39.707031 37.199219 39.675781 37.207031 39.648438 C 37.597656 38.449219 42.839844 35.601562 42.449219 34.402344 C 42.4375 34.367188 42.421875 34.332031 42.402344 34.300781 Z M 21.105469 34.300781 C 21.085938 34.332031 21.070312 34.367188 21.058594 34.402344 C 20.667969 35.601562 25.90625 38.449219 26.296875 39.648438 C 26.304688 39.675781 26.3125 39.707031 26.320312 39.742188 C 26.347656 39.488281 26.34375 39.277344 26.296875 39.128906 C 25.949219 38.054688 21.695312 35.652344 21.105469 34.300781 Z M 31.753906 43.09375 C 30.492188 43.09375 26.164062 47.195312 25.144531 46.457031 C 25.015625 46.363281 24.941406 46.195312 24.914062 45.96875 C 24.871094 46.457031 24.929688 46.816406 25.144531 46.972656 C 26.164062 47.714844 30.492188 43.613281 31.753906 43.613281 C 33.011719 43.613281 37.34375 47.714844 38.363281 46.972656 C 38.578125 46.816406 38.632812 46.453125 38.589844 45.96875 C 38.5625 46.195312 38.492188 46.363281 38.363281 46.457031 C 37.34375 47.195312 33.011719 43.09375 31.753906 43.09375 Z M 31.753906 43.09375 "/>
<path style="fill:none;stroke-width:3;stroke-linecap:round;stroke-linejoin:miter;stroke:rgb(12.941177%,12.941177%,12.941177%);stroke-opacity:1;stroke-miterlimit:4;" d="M 254.006994 -6.113698 C 264.068533 -6.113698 272.817697 40.788073 280.973168 46.693759 C 289.12864 52.630693 336.436622 46.443783 339.561324 56.036617 C 342.686025 65.629451 300.75253 88.408526 297.627828 98.00136 C 294.534373 107.594194 315.032416 150.683829 306.876945 156.620762 C 298.721474 162.526448 264.068533 129.717081 254.006994 129.717081 C 243.914207 129.717081 209.292514 162.526448 201.137042 156.620762 C 192.950324 150.683829 213.479614 107.594194 210.354912 98.00136 C 207.230211 88.408526 165.327962 65.629451 168.452664 56.036617 C 171.546118 46.443783 218.8541 52.630693 227.040819 46.693759 C 235.19629 40.788073 243.914207 -6.113698 254.006994 -6.113698 Z M 254.006994 -6.113698 " transform="matrix(0.125012,0,0,0.125012,0,26.877566)"/>
</g>
</svg>

<svg xmlns="http://www.w3.org/2000/svg" width="64pt" height="64pt" viewBox="0 0 64 64"><defs><linearGradient id="a" gradientUnits="userSpaceOnUse" x1="254" y1="233.5" x2="254" y2="254.667" gradientTransform="translate(0 26.878) scale(.12501)"><stop offset="0" stop-opacity=".275"/><stop offset="1" stop-opacity="0"/></linearGradient><radialGradient id="b" gradientUnits="userSpaceOnUse" cx="450.909" cy="189.579" fx="450.909" fy="189.579" r="21.167" gradientTransform="matrix(0 -.15626 -.28128 0 108.23 127.19)"><stop offset="0" stop-opacity=".314"/><stop offset=".222" stop-opacity=".275"/><stop offset="1" stop-opacity="0"/></radialGradient><radialGradient id="c" gradientUnits="userSpaceOnUse" cx="450.909" cy="189.579" fx="450.909" fy="189.579" r="21.167" gradientTransform="matrix(0 .15626 .28128 0 -44.724 -15.055)"><stop offset="0" stop-opacity=".314"/><stop offset=".222" stop-opacity=".275"/><stop offset="1" stop-opacity="0"/></radialGradient><radialGradient id="d" gradientUnits="userSpaceOnUse" cx="450.909" cy="189.579" fx="450.909" fy="189.579" r="21.167" gradientTransform="matrix(0 -.15626 .28128 0 -44.724 127.19)"><stop offset="0" stop-opacity=".314"/><stop offset=".222" stop-opacity=".275"/><stop offset="1" stop-opacity="0"/></radialGradient><radialGradient id="e" gradientUnits="userSpaceOnUse" cx="450.909" cy="189.579" fx="450.909" fy="189.579" r="21.167" gradientTransform="matrix(0 .15626 -.28128 0 108.23 -15.055)"><stop offset="0" stop-opacity=".314"/><stop offset=".222" stop-opacity=".275"/><stop offset="1" stop-opacity="0"/></radialGradient><linearGradient id="f" gradientUnits="userSpaceOnUse" x1="254" y1="-147.5" x2="254" y2="-31.083" gradientTransform="translate(0 26.878) scale(.12501)"><stop offset="0" stop-color="#a4a4a4" stop-opacity="0"/><stop offset="1" stop-color="#fff" stop-opacity=".196"/></linearGradient><linearGradient id="g" gradientUnits="userSpaceOnUse" x1="254" y1="233.5" x2="254" y2="-105.167" gradientTransform="translate(0 26.878) scale(.12501)"><stop offset="0" stop-color="#585858" stop-opacity="0"/><stop offset="1" stop-color="#fafafa" stop-opacity=".196"/></linearGradient><linearGradient id="h" gradientUnits="userSpaceOnUse" x1="254" y1="-147.5" x2="254" y2="233.5" gradientTransform="translate(0 26.878) scale(.12501)"><stop offset="0" stop-color="#a4a4a4" stop-opacity="0"/><stop offset="1" stop-color="#fff" stop-opacity=".196"/></linearGradient></defs><path d="M7.938 56.066h47.628v2.649H7.937zm0 0" fill="url(#a)"/><path d="M55.566 56.066h5.293v-2.644h-5.293zm0 0" fill="url(#b)"/><path d="M7.938 56.066H2.644v2.649h5.292zm0 0" fill="url(#c)"/><path d="M7.938 56.066H2.644v-2.644h5.292zm0 0" fill="url(#d)"/><path d="M55.566 56.066h5.293v2.649h-5.293zm0 0" fill="url(#e)"/><path d="M14.555 8.438H57.55a2.646 2.646 0 0 1 2.648 2.648v9.922a2.645 2.645 0 0 1-2.648 2.644H14.555a2.647 2.647 0 0 1-2.649-2.644v-9.922a2.648 2.648 0 0 1 2.649-2.649zm0 0" fill="#64b5f6"/><path d="M14.555 8.438H57.55a2.646 2.646 0 0 1 2.648 2.648v9.922a2.645 2.645 0 0 1-2.648 2.644H14.555a2.647 2.647 0 0 1-2.649-2.644v-9.922a2.648 2.648 0 0 1 2.649-2.649zm0 0" fill="url(#f)"/><path d="M14.555 8.438a2.64 2.64 0 0 0-2.649 2.648v.328a2.64 2.64 0 0 1 2.649-2.644H57.55a2.64 2.64 0 0 1 2.648 2.644v-.328a2.64 2.64 0 0 0-2.648-2.649zm0 0" fill="#e6e6e6" fill-opacity=".588"/><path d="M14.555 8.25a2.836 2.836 0 0 0-2.836 2.836v9.922a2.832 2.832 0 0 0 2.836 2.832H57.55a2.832 2.832 0 0 0 2.836-2.832v-9.922A2.836 2.836 0 0 0 57.55 8.25zm0 .375H57.55a2.45 2.45 0 0 1 2.46 2.46v9.923a2.45 2.45 0 0 1-2.46 2.457H14.555a2.45 2.45 0 0 1-2.461-2.457v-9.922a2.45 2.45 0 0 1 2.46-2.461zm0 0" fill="#212121"/><path d="M5.293 13.73a2.642 2.642 0 0 0-2.648 2.645v37.047a2.642 2.642 0 0 0 2.648 2.644h52.922a2.639 2.639 0 0 0 2.644-2.644V20.344H25.137a2.639 2.639 0 0 1-2.645-2.645V13.73zm0 0" fill="#bbdefb"/><path d="M5.293 13.73a2.642 2.642 0 0 0-2.648 2.645v37.047a2.642 2.642 0 0 0 2.648 2.644h52.922a2.639 2.639 0 0 0 2.644-2.644V20.344H25.137a2.639 2.639 0 0 1-2.645-2.645V13.73zm0 0" fill="url(#g)"/><path d="M5.293 56.066a2.642 2.642 0 0 1-2.648-2.644v-.332a2.643 2.643 0 0 0 2.648 2.648h52.922a2.64 2.64 0 0 0 2.644-2.648v.332a2.639 2.639 0 0 1-2.644 2.644zm0 0" fill-opacity=".196"/><path d="M5.293 13.73a2.642 2.642 0 0 0-2.648 2.645v.332a2.642 2.642 0 0 1 2.648-2.645h17.2v-.332zm0 0M24.973 20.512a2.64 2.64 0 0 1-2.645-2.649v-.328a2.637 2.637 0 0 0 2.645 2.645h35.886v.332zm0 0" fill="#e6e6e6" fill-opacity=".937"/><path d="M5.293 13.543a2.832 2.832 0 0 0-2.836 2.832v37.047a2.832 2.832 0 0 0 2.836 2.832h52.922a2.83 2.83 0 0 0 2.832-2.832V19.969h-35.91a2.447 2.447 0 0 1-2.457-2.457v-3.969zm0 .375h17.012v3.594a2.83 2.83 0 0 0 2.832 2.832h35.535v33.078a2.449 2.449 0 0 1-2.457 2.457H5.293a2.45 2.45 0 0 1-2.461-2.457V16.375a2.45 2.45 0 0 1 2.461-2.457zm0 0" fill="#212121"/><path d="M31.754 26.113c1.258 0 2.351 5.864 3.371 6.602 1.02.742 6.934-.031 7.324 1.168.39 1.199-4.851 4.047-5.242 5.246-.387 1.2 2.176 6.586 1.156 7.328-1.02.738-5.351-3.363-6.61-3.363-1.26 0-5.589 4.101-6.608 3.363-1.024-.742 1.543-6.129 1.152-7.328-.39-1.2-5.629-4.047-5.238-5.246.386-1.2 6.3-.426 7.324-1.168 1.02-.738 2.11-6.602 3.37-6.602zm0 0" fill="#64b5f6"/><path d="M31.754 26.113c1.258 0 2.351 5.864 3.371 6.602 1.02.742 6.934-.031 7.324 1.168.39 1.199-4.851 4.047-5.242 5.246-.387 1.2 2.176 6.586 1.156 7.328-1.02.738-5.351-3.363-6.61-3.363-1.26 0-5.589 4.101-6.608 3.363-1.024-.742 1.543-6.129 1.152-7.328-.39-1.2-5.629-4.047-5.238-5.246.386-1.2 6.3-.426 7.324-1.168 1.02-.738 2.11-6.602 3.37-6.602zm0 0" fill="url(#h)"/><path d="M31.754 25.926c-.23 0-.43.129-.602.312-.172.18-.328.426-.48.715-.305.578-.594 1.34-.871 2.121-.281.781-.551 1.582-.813 2.227-.261.644-.543 1.14-.718 1.265-.172.125-.727.239-1.422.29-.696.05-1.54.058-2.371.085-.829.024-1.641.063-2.286.172a3.27 3.27 0 0 0-.828.235c-.226.109-.414.257-.484.476-.07.219-.008.45.113.668.117.223.301.446.531.68.457.469 1.09.976 1.747 1.484.656.508 1.335 1.012 1.867 1.461.535.45.918.867.98 1.07.067.204.008.77-.16 1.446-.168.676-.422 1.484-.652 2.281-.235.793-.45 1.578-.543 2.227a3.274 3.274 0 0 0-.032.859c.032.25.118.473.301.61.188.132.426.144.672.097.246-.047.516-.152.809-.297.586-.289 1.265-.734 1.953-1.203.683-.469 1.375-.957 1.965-1.324.593-.367 1.11-.602 1.324-.602.21 0 .73.235 1.32.602.594.367 1.281.855 1.969 1.324.684.469 1.363.914 1.953 1.203.293.145.563.25.809.297.246.047.484.035.668-.098.187-.136.273-.359.304-.609.032-.246.012-.535-.035-.86-.094-.648-.308-1.433-.539-2.226-.234-.797-.484-1.605-.652-2.281-.168-.676-.23-1.242-.164-1.446.066-.203.449-.62.98-1.07.535-.449 1.211-.953 1.867-1.46.657-.509 1.293-1.016 1.75-1.485a3.27 3.27 0 0 0 .532-.68c.12-.219.183-.449.109-.668-.07-.219-.254-.367-.48-.476a3.318 3.318 0 0 0-.829-.235c-.644-.11-1.457-.148-2.289-.172-.828-.027-1.675-.035-2.37-.086-.692-.05-1.25-.164-1.423-.289-.172-.125-.453-.62-.714-1.265-.262-.645-.536-1.446-.813-2.227-.281-.781-.566-1.543-.871-2.12-.152-.29-.309-.536-.48-.716-.172-.183-.372-.312-.602-.312zm0 .375c.086 0 .195.05.328.191.133.145.277.363.422.637.285.543.57 1.293.848 2.07.277.778.55 1.582.82 2.242.27.664.504 1.184.844 1.426.336.246.902.313 1.617.363.71.051 1.558.06 2.383.086.828.024 1.629.063 2.234.168.305.051.559.121.734.203.176.083.258.172.286.254.027.079.011.204-.083.371a3.022 3.022 0 0 1-.472.598c-.43.442-1.055.942-1.707 1.45-.656.503-1.336 1.011-1.883 1.468-.547.461-.965.848-1.094 1.246-.129.395-.015.953.157 1.649.171.691.421 1.504.656 2.293.23.793.441 1.57.527 2.18.047.304.059.566.035.757-.027.195-.086.3-.152.352-.07.05-.191.07-.383.035a2.984 2.984 0 0 1-.71-.266c-.552-.27-1.224-.71-1.907-1.176-.684-.464-1.375-.957-1.98-1.332-.606-.379-1.106-.66-1.52-.66-.418 0-.914.282-1.52.66-.609.375-1.3.868-1.98 1.332-.684.465-1.356.907-1.906 1.176-.278.137-.524.23-.715.266-.192.035-.313.015-.38-.035-.07-.051-.128-.157-.151-.352a3.08 3.08 0 0 1 .03-.758c.09-.61.302-1.386.532-2.18.23-.788.484-1.6.656-2.292.172-.696.285-1.254.157-1.649-.13-.398-.551-.785-1.098-1.246-.547-.457-1.227-.965-1.879-1.469-.652-.507-1.281-1.007-1.707-1.449a3.022 3.022 0 0 1-.473-.597c-.093-.168-.11-.293-.086-.372.028-.082.114-.171.29-.254.175-.082.43-.152.73-.203.605-.105 1.41-.144 2.234-.168.825-.027 1.672-.035 2.387-.086.71-.05 1.277-.117 1.617-.363.336-.242.574-.762.844-1.426.266-.66.539-1.464.816-2.242.278-.777.567-1.527.852-2.07.144-.274.289-.492.422-.637.133-.14.242-.191.328-.191zm0 0" fill="#212121"/></svg>
